ui/StatusQ/src/assets/img/icons/time.svg

<svg fill="none" height="25" viewBox="0 0 24 25" width="24" xmlns="http://www.w3.org/2000/svg"><g fill="#000"><path d="m12.75 7.5c0-.41421-.3358-.75-.75-.75s-.75.33579-.75.75v4.1716c0 .7293.2897 1.4288.8055 1.9445l2.4142 2.4142c.2929.2929.7677.2929 1.0606 0s.2929-.7677 0-1.0606l-2.4142-2.4142c-.2344-.2345-.3661-.5524-.3661-.8839z"/><path clip-rule="evenodd" d="m22 12.5c0 5.5228-4.4772 10-10 10-5.52285 0-10-4.4772-10-10 0-5.52285 4.47715-10 10-10 5.5228 0 10 4.47715 10 10zm-1.5 0c0 4.6944-3.8056 8.5-8.5 8.5-4.69442 0-8.5-3.8056-8.5-8.5 0-4.69442 3.80558-8.5 8.5-8.5 4.6944 0 8.5 3.80558 8.5 8.5z" fill-rule="evenodd"/></g></svg>

<svg width="24" height="25" viewBox="0 0 24 25" fill="none" xmlns="http://www.w3.org/2000/svg">
<path d="M12.75 7.5C12.75 7.08579 12.4142 6.75 12 6.75C11.5858 6.75 11.25 7.08579 11.25 7.5V11.6716C11.25 12.4009 11.5397 13.1004 12.0555 13.6161L14.4697 16.0303C14.7626 16.3232 15.2374 16.3232 15.5303 16.0303C15.8232 15.7374 15.8232 15.2626 15.5303 14.9697L13.1161 12.5555C12.8817 12.321 12.75 12.0031 12.75 11.6716V7.5Z" fill="black"/>
<path fill-rule="evenodd" clip-rule="evenodd" d="M22 12.5C22 18.0228 17.5228 22.5 12 22.5C6.47715 22.5 2 18.0228 2 12.5C2 6.97715 6.47715 2.5 12 2.5C17.5228 2.5 22 6.97715 22 12.5ZM20.5 12.5C20.5 17.1944 16.6944 21 12 21C7.30558 21 3.5 17.1944 3.5 12.5C3.5 7.80558 7.30558 4 12 4C16.6944 4 20.5 7.80558 20.5 12.5Z" fill="black"/>
</svg>
